docs/static/img/logos/mysql.svg

<svg width="31" height="28" viewBox="0 0 31 28" fill="none" xmlns="http://www.w3.org/2000/svg">
<g clip-path="url(#clip0)">
<path d="M28.6097 19.9408C26.9527 19.9045 25.6697 20.0484 24.5929 20.4412C24.282 20.5482 23.7877 20.5482 23.7444 20.8871C23.9124 21.0304 23.9318 21.2617 24.0775 21.4596C24.3258 21.8166 24.7586 22.2968 25.1538 22.5473C25.5877 22.834 26.0233 23.1179 26.48 23.3678C27.2852 23.7974 28.198 24.0474 28.9827 24.4756C29.4399 24.7245 29.8944 25.0466 30.3521 25.3147C30.5771 25.4576 30.7212 25.6894 31.0133 25.7788V25.7243C30.867 25.5637 30.8254 25.3315 30.6819 25.1527L30.0601 24.6357C29.4593 23.9398 28.7128 23.3324 27.9076 22.8335C27.2447 22.4397 25.795 21.9045 25.5262 21.246L25.4841 21.2096C25.9396 21.1728 26.48 21.0304 26.9128 20.921C27.6172 20.7609 28.2595 20.7972 28.9822 20.6371C29.3147 20.5654 29.6444 20.4756 29.9781 20.3872V20.2261C29.6034 19.9045 29.3363 19.4773 28.9423 19.1733C27.8882 18.3882 26.7266 17.6202 25.5262 16.9774C24.8833 16.6195 24.0565 16.3891 23.372 16.0847C23.1254 15.9772 22.7098 15.9241 22.5646 15.7454C22.1932 15.3526 21.9843 14.8355 21.715 14.3705C21.1164 13.3894 20.5351 12.3008 20.0186 11.2632C19.645 10.5674 19.4178 9.87258 18.9623 9.22886C16.8286 6.19423 14.5115 4.35626 10.9502 2.55221C10.1849 2.17659 9.27435 2.01649 8.30173 1.8196L6.74832 1.74887C6.41691 1.62367 6.08494 1.28388 5.79565 1.12331C4.6141 0.481022 1.57211 -0.91108 0.703133 0.926897C0.143394 2.08865 1.5311 3.23082 2.00771 3.82006C2.35963 4.22914 2.81573 4.69461 3.06179 5.15912C3.20755 5.46258 3.24856 5.78468 3.39432 6.10535C3.72573 6.891 4.03552 7.76507 4.47112 8.49816C4.69834 8.87187 4.94607 9.2647 5.23647 9.60304C5.40273 9.80089 5.69202 9.88835 5.75519 10.2109C5.46646 10.5665 5.44374 11.1032 5.27803 11.5495C4.53319 13.5667 4.82414 16.0656 5.87989 17.548C6.21019 17.9944 6.99826 18.9769 8.05234 18.6003C8.98561 18.2792 8.7789 17.2618 9.04713 16.3695C9.10864 16.154 9.06819 16.0125 9.19233 15.8711V15.906C9.48106 16.4054 9.77257 16.8866 10.0402 17.3874C10.6826 18.2615 11.8009 19.1724 12.7325 19.7779C13.2285 20.1009 13.6215 20.6534 14.2427 20.8507V20.7972H14.2017C14.0759 20.6371 13.8919 20.5654 13.7268 20.4412C13.3532 20.1196 12.9398 19.7267 12.65 19.3702C11.7821 18.37 11.014 17.2627 10.3323 16.1201C9.99868 15.5657 9.71105 14.9597 9.44227 14.4063C9.31702 14.1927 9.31702 13.8706 9.1092 13.7631C8.79774 14.1555 8.34385 14.4952 8.11663 14.976C7.7226 15.7449 7.68159 16.6907 7.53528 17.6742L7.45381 17.7086C6.79432 17.5657 6.56488 16.9774 6.31438 16.478C5.69423 15.2097 5.59005 13.1739 6.12817 11.7106C6.27226 11.3364 6.89573 10.1579 6.6469 9.80137C6.5222 9.45968 6.10767 9.26517 5.88045 8.99612C5.61332 8.65777 5.32071 8.22958 5.1345 7.85396C4.63794 6.85468 4.38799 5.74741 3.85319 4.74861C3.60325 4.28314 3.16931 3.80142 2.81795 3.37275C2.42336 2.89104 1.98942 2.55173 1.67741 1.98065C1.57433 1.78424 1.42969 1.46309 1.59539 1.24947C1.63585 1.10611 1.72008 1.05258 1.88523 1.01674C2.15346 0.821282 2.91992 1.06979 3.18871 1.17731C3.95627 1.44493 4.59803 1.69487 5.23868 2.06954C5.52853 2.24875 5.83944 2.58805 6.2113 2.67742H6.6469C7.30806 2.80167 8.05345 2.71183 8.67582 2.87336C9.77257 3.1773 10.7662 3.62317 11.6574 4.10441C14.3691 5.58731 16.6053 7.69434 18.1149 10.2109C18.3626 10.621 18.4679 10.9966 18.694 11.4243C19.1302 12.2998 19.6694 13.1925 20.1023 14.0494C20.5373 14.8881 20.9518 15.7445 21.5731 16.4412C21.8829 16.8159 23.1276 17.0123 23.6857 17.2087C24.0986 17.3688 24.7414 17.5112 25.1139 17.7076C25.8182 18.0818 26.5199 18.5115 27.1821 18.9229C27.5119 19.137 28.5482 19.5834 28.6097 19.9408ZM7.4915 4.42651C7.20567 4.42395 6.92072 4.45416 6.64413 4.51635V4.55219H6.68403C6.85084 4.8375 7.14069 5.03534 7.3474 5.28433C7.51422 5.57058 7.65886 5.85445 7.82235 6.14023L7.86225 6.10487C8.15432 5.92661 8.29952 5.64083 8.29952 5.21216C8.17371 5.086 8.15431 4.9627 8.04957 4.8375C7.92765 4.65876 7.65886 4.56988 7.4915 4.42651Z" fill="black"/>
</g>
<defs>
<clipPath id="clip0">
<rect width="30.6667" height="28" fill="white"/>
</clipPath>
</defs>
</svg>

<svg xmlns="http://www.w3.org/2000/svg" width="31" height="28" fill="none" xmlns:v="https://vecta.io/nano"><g clip-path="url(#A)"><path d="M28.61 19.941c-1.657-.036-2.94.108-4.017.5-.311.107-.805.107-.849.446.168.143.187.375.333.572.248.357.681.837 1.076 1.088l1.326.82c.805.43 1.718.68 2.503 1.108.457.249.912.571 1.369.839.225.143.369.375.661.464v-.055c-.146-.161-.188-.393-.331-.572l-.622-.517c-.601-.696-1.347-1.303-2.152-1.802-.663-.394-2.113-.929-2.381-1.588l-.042-.036c.455-.037.996-.179 1.429-.289.704-.16 1.347-.124 2.069-.284l.996-.25v-.161c-.375-.322-.642-.749-1.036-1.053-1.054-.785-2.216-1.553-3.416-2.196-.643-.358-1.47-.588-2.154-.893-.247-.108-.662-.161-.807-.339-.371-.393-.58-.91-.85-1.375l-1.696-3.107c-.374-.696-.601-1.391-1.056-2.034-2.134-3.035-4.451-4.873-8.012-6.677-.765-.376-1.676-.536-2.648-.733l-1.553-.071c-.331-.125-.663-.465-.953-.626C4.614.481 1.572-.911.703.927c-.56 1.162.828 2.304 1.305 2.893.352.409.808.875 1.054 1.339.146.303.187.626.333.946.331.786.641 1.66 1.077 2.393.227.374.475.767.765 1.105.166.198.456.285.519.608-.289.356-.311.892-.477 1.339-.745 2.017-.454 4.516.602 5.998.33.446 1.118 1.429 2.172 1.052.933-.321.727-1.338.995-2.231.062-.215.021-.357.145-.498v.035l.848 1.481c.642.874 1.761 1.785 2.692 2.39.496.323.889.876 1.51 1.073v-.053h-.041c-.126-.16-.31-.232-.475-.356-.374-.322-.787-.714-1.077-1.071-.868-1-1.636-2.108-2.318-3.25-.334-.554-.621-1.16-.89-1.714-.125-.214-.125-.536-.333-.643-.311.392-.765.732-.993 1.213-.394.769-.435 1.715-.581 2.698l-.081.034c-.659-.143-.889-.731-1.139-1.231-.62-1.268-.724-3.304-.186-4.767.144-.374.768-1.553.519-1.909-.125-.342-.539-.536-.766-.805-.267-.338-.56-.767-.746-1.142-.497-.999-.747-2.107-1.281-3.105-.25-.465-.684-.947-1.035-1.376-.395-.482-.829-.821-1.141-1.392-.103-.196-.248-.518-.082-.731.04-.143.125-.197.29-.233.268-.195 1.035.053 1.303.161.768.268 1.409.518 2.05.892.29.179.601.519.973.608h.436c.661.124 1.407.034 2.029.196 1.097.304 2.09.75 2.982 1.231 2.712 1.483 4.948 3.59 6.457 6.106.248.41.353.786.579 1.213.436.875.975 1.768 1.408 2.625.435.839.849 1.695 1.471 2.392.31.375 1.555.571 2.113.768.413.16 1.056.302 1.428.499.704.374 1.406.804 2.068 1.215.33.214 1.366.661 1.428 1.018zM7.492 4.427c-.286-.003-.571.028-.847.09v.036h.04c.167.285.457.483.663.732.167.286.311.57.475.856l.04-.035c.292-.178.437-.464.437-.893-.126-.126-.145-.249-.25-.375-.122-.179-.391-.268-.558-.411z" fill="#000"/></g><defs><clipPath id="A"><path fill="#fff" d="M0 0h30.667v28H0z"/></clipPath></defs></svg>
